icons/cross_country_motorcycle.svg

<svg width="48" height="48" viewBox="0 0 48 48" fill="none" xmlns="http://www.w3.org/2000/svg">
<path fill-rule="evenodd" clip-rule="evenodd" d="M28 10C28.3895 10 28.7436 10.2261 28.9073 10.5795L30.4924 14H35.625C35.9134 14 36.1877 14.1245 36.3776 14.3415L40.7526 19.3415C41.011 19.6368 41.0728 20.0559 40.9106 20.4132C40.7485 20.7705 40.3924 21 40 21H33.7363L35.7062 25.2507C36.2759 25.0874 36.8778 25 37.5 25C41.0899 25 44 27.9101 44 31.5C44 35.0899 41.0899 38 37.5 38C33.9101 38 31 35.0899 31 31.5C31 29.245 32.1483 27.2583 33.892 26.0925L32.3994 22.8718L29.1643 25.7474C29.1134 25.7927 29.0583 25.8324 29 25.866V30C29 31.6569 27.6569 33 26 33H22C21.3866 33 20.8163 32.8159 20.3411 32.5H16.9236C16.4425 35.6151 13.7498 38 10.5 38C6.91015 38 4 35.0899 4 31.5C4 27.9101 6.91015 25 10.5 25C13.7498 25 16.4425 27.3849 16.9236 30.5H19.0415C19.0142 30.3374 19 30.1704 19 30V27C19 26.4344 19.1565 25.9053 19.4287 25.4537L19.0782 24.9617L4.8971 23.4947C4.38738 23.442 4 23.0124 4 22.5V19C4 18.4477 4.44771 18 5 18H15.5995C15.6257 17.9886 15.6524 17.9783 15.6796 17.969L20.0995 16.4743C21.0283 16.1602 22.0022 16 22.9827 16H29V15.5362L27.3613 12H23V10H28ZM31.4193 16L32.8095 19H37.7962L35.1712 16H31.4193ZM21 27C21 26.4477 21.4477 26 22 26H27V30C27 30.5523 26.5523 31 26 31H22C21.4477 31 21 30.5523 21 30V27ZM31.5211 20.9766L28.1198 24H20.8487L17.5953 19.4325L20.7402 18.3689C21.4626 18.1246 22.2201 18 22.9827 18H30.1418L31.5211 20.9766ZM17.5321 22.7911L15.5441 20H6V21.5981L17.5321 22.7911ZM34.7478 27.9394C33.6846 28.7625 33 30.0513 33 31.5C33 33.9853 35.0147 36 37.5 36C39.9853 36 42 33.9853 42 31.5C42 29.0147 39.9853 27 37.5 27C37.1784 27 36.8647 27.0337 36.5622 27.0979L38.4073 31.0795C38.6395 31.5806 38.4216 32.1751 37.9205 32.4073C37.4194 32.6395 36.8249 32.4216 36.5927 31.9205L34.7478 27.9394ZM10.5 36C8.01472 36 6 33.9853 6 31.5C6 29.0147 8.01472 27 10.5 27C12.6416 27 14.4338 28.496 14.8885 30.5H10.5C9.94771 30.5 9.5 30.9477 9.5 31.5C9.5 32.0523 9.94771 32.5 10.5 32.5H14.8885C14.4338 34.504 12.6416 36 10.5 36Z" fill="black"/>
</svg>

<svg
  xmlns="http://www.w3.org/2000/svg"
  width="24"
  height="24"
  viewBox="0 0 24 24"
  fill="none"
  stroke="currentColor"
  stroke-width="2"
  stroke-linecap="round"
  stroke-linejoin="round"
>
  <path
    fill-rule="evenodd"
    d="M28 10a1 1 0 0 1 .907.58L30.492 14h5.133a1 1 0 0 1 .753.341l4.375 5A1 1 0 0 1 40 21h-6.264l1.97 4.25a6.5 6.5 0 1 1-1.814.842l-1.493-3.22-3.235 2.875a1 1 0 0 1-.164.119V30a3 3 0 0 1-3 3h-4a3 3 0 0 1-1.659-.5h-3.417A6.502 6.502 0 0 1 4 31.5a6.5 6.5 0 0 1 12.924-1h2.117A3 3 0 0 1 19 30v-3c0-.566.157-1.095.429-1.546l-.35-.492-14.182-1.467A1 1 0 0 1 4 22.5V19a1 1 0 0 1 1-1h10.6l.08-.031 4.42-1.495A9 9 0 0 1 22.982 16H29v-.464L27.361 12H23v-2zm3.42 6 1.39 3h4.986l-2.625-3zM21 27a1 1 0 0 1 1-1h5v4a1 1 0 0 1-1 1h-4a1 1 0 0 1-1-1zm10.521-6.023L28.12 24h-7.271l-3.254-4.567 3.145-1.064A7 7 0 0 1 22.983 18h7.159zM17.532 22.79 15.544 20H6v1.598zm17.216 5.148a4.5 4.5 0 1 0 1.814-.841l1.845 3.982a1 1 0 0 1-1.814.84zM10.5 36a4.5 4.5 0 1 1 4.389-5.5H10.5a1 1 0 1 0 0 2h4.389A4.5 4.5 0 0 1 10.5 36"
    clip-rule="evenodd"
  />
</svg>
